X: 83
T: Elu Tziporim
C: Jean Kalva 1982
O: Israel
I: taught by Moshe Eskayo
F: http://www.youtube.com/watch?v=B7By_M-RASM
F: http://www.youtube.com/watch?v=A1GsgdtB0U4
M: 4/4
L: 1/8
Q: 1/4=120
K: D
|:FAFE D2 D2|FAFE D2 D2 |E2 E2 FEDE|[1 F8 :|[2D8   |: F5 EFE|D5 EFG    |
  A5 BAG    |F8         |F5 EFE    |D5 DEF|[1E5 DCD|E8      :|[2 E5 DCE|D8|:
  AAAA B2 B2| FAFE E2 D2| EEEE FEDE|[1 F8 :|[2 D8  |



